; generated by PrusaSlicer 2.4.2+x64 on 2022-06-08 at 17:40:17 UTC

; 

; external perimeters extrusion width = 0.45mm
; perimeters extrusion width = 0.45mm
; infill extrusion width = 0.45mm
; solid infill extrusion width = 0.45mm
; top infill extrusion width = 0.40mm
; first layer extrusion width = 0.42mm

M107
M190 S60 ; set bed temperature and wait for it to be reached
M104 S210 ; set temperature
;TYPE:Custom
G28 ; home all axes
G1 Z5 F5000 ; lift nozzle
M109 S210 ; set temperature and wait for it to be reached
G21 ; set units to millimeters
G90 ; use absolute coordinates
M82 ; use absolute distances for extrusion
G92 E0
; Filament gcode
M107
;LAYER_CHANGE
;Z:0.35
;HEIGHT:0.35
G1 Z.35 F7800
G1 E-2 F2400
G92 E0
G1 X89.344 Y70.498 F7800
G1 E2 F2400
;TYPE:Skirt/Brim
;WIDTH:0.42
G1 F1800
G1 X90.699 Y68.875 E2.10612
G1 X92.234 Y67.53 E2.20854
G1 X93.913 Y66.469 E2.30822
G1 X95.788 Y65.658 E2.41073
G1 X97.757 Y65.146 E2.51281
G1 X100.533 Y64.886 E2.65273
G1 X122.827 Y63.518 E3.77369
G1 X124.43 Y63.482 E3.85416
G1 X126.105 Y63.544 E3.93826
G1 X127.89 Y63.732 E4.02836
G1 X130.883 Y64.327 E4.18153
G1 X132.609 Y64.838 E4.27186
G1 X134.214 Y65.427 E4.35766
G1 X136.055 Y66.263 E4.45912
G1 X137.305 Y66.932 E4.53028
G1 X138.704 Y67.783 E4.61247
G1 X140.038 Y68.724 E4.6944
G1 X141.315 Y69.734 E4.77611
G1 X142.709 Y71.006 E4.87078
G1 X144.056 Y72.431 E4.96921
G1 X145.144 Y73.747 E5.05489
G1 X146.193 Y75.206 E5.14509
G1 X147.065 Y76.612 E5.22813
G1 X147.644 Y77.74 E5.29176
G1 X148.106 Y78.897 E5.35425
G1 X148.64 Y81.063 E5.46623
G1 X148.762 Y82.198 E5.52351
G1 X148.778 Y83.452 E5.58646
G1 X148.494 Y85.659 E5.69815
G1 X148.183 Y86.814 E5.75814
G1 X147.785 Y87.906 E5.8165
G1 X146.825 Y89.758 E5.92117
G1 X145.222 Y92.121 E6.0645
G1 X143.166 Y94.506 E6.22251
G1 X141.46 Y96.109 E6.34
G1 X139.549 Y97.604 E6.46174
G1 X137.524 Y98.914 E6.58281
G1 X135.165 Y100.127 E6.71594
G1 X132.495 Y101.17 E6.85979
G1 X130.077 Y101.835 E6.98561
G1 X127.75 Y102.246 E7.10424
G1 X125.657 Y102.448 E7.20975
G1 X122.839 Y102.445 E7.35119
G1 X98.07 Y100.873 E8.59674
G1 X96.105 Y100.41 E8.69802
G1 X94.331 Y99.711 E8.79372
G1 X92.53 Y98.664 E8.89827
G1 X91.102 Y97.503 E8.99066
G1 X90.069 Y96.401 E9.06643
G1 X89.269 Y95.347 E9.13286
G1 X88.629 Y94.311 E9.19395
G1 X88.101 Y93.258 E9.25306
G1 X87.666 Y92.12 E9.31423
G1 X87.265 Y90.661 E9.39017
G1 X87.04 Y89.168 E9.46593
G1 X86.968 Y87.994 E9.52496
G1 X86.979 Y77.76 E10.03855
G1 X87.213 Y75.57 E10.14912
G1 X87.697 Y73.754 E10.2434
G1 X88.478 Y71.928 E10.34305
G1 X89.313 Y70.549 E10.42398
G1 E8.42398 F2400
G92 E0
G1 X94.753 Y74.488 F7800
G1 E2 F2400
G1 F1800
G1 X95.287 Y73.75 E2.0457
G1 X95.92 Y73.137 E2.0899
G1 X96.633 Y72.613 E2.13431
G1 X98.123 Y71.928 E2.21662
G1 X98.811 Y71.755 E2.25224
G1 X99.531 Y71.655 E2.28869
G1 X123.181 Y70.199 E3.47785
G1 X124.622 Y70.174 E3.55015
G1 X125.669 Y70.219 E3.60277
G1 X126.91 Y70.349 E3.66536
G1 X128.096 Y70.549 E3.72575
G1 X129.141 Y70.784 E3.77948
G1 X130.385 Y71.147 E3.84455
G1 X131.615 Y71.59 E3.91015
G1 X132.521 Y71.985 E3.95975
G1 X133.256 Y72.342 E4.00075
G1 X133.987 Y72.74 E4.04251
G1 X135.011 Y73.36 E4.10257
G1 X135.992 Y74.05 E4.16278
G1 X137.02 Y74.861 E4.2285
G1 X138.006 Y75.762 E4.29551
G1 X138.539 Y76.303 E4.33365
G1 X139.052 Y76.869 E4.37198
G1 X139.873 Y77.867 E4.43684
G1 X140.705 Y79.033 E4.50872
G1 X141.435 Y80.253 E4.58008
G1 X141.933 Y81.604 E4.65232
G1 X142.096 Y82.989 E4.7223
G1 X141.92 Y84.394 E4.79336
G1 X141.431 Y85.725 E4.86453
G1 X140.573 Y87.13 E4.94716
G1 X140.024 Y87.906 E4.99486
G1 X139.526 Y88.544 E5.03548
G1 X138.957 Y89.213 E5.07958
G1 X138.339 Y89.874 E5.12497
G1 X137.339 Y90.827 E5.19431
G1 X136.603 Y91.453 E5.24278
G1 X135.826 Y92.044 E5.2918
G1 X134.997 Y92.615 E5.34228
G1 X134.3 Y93.05 E5.38351
G1 X133.623 Y93.428 E5.42242
G1 X132.462 Y94.008 E5.4876
G1 X131.643 Y94.36 E5.5323
G1 X130.437 Y94.805 E5.59682
G1 X129.167 Y95.171 E5.66315
G1 X127.7 Y95.496 E5.73856
G1 X126.069 Y95.712 E5.82111
G1 X125.017 Y95.781 E5.87405
G1 X123.897 Y95.792 E5.93026
G1 X123.262 Y95.769 E5.96212
G1 X99.284 Y94.286 E7.16779
G1 X98.529 Y94.145 E7.20632
G1 X97.781 Y93.918 E7.24555
G1 X96.649 Y93.369 E7.3087
G1 X95.53 Y92.47 E7.38075
G1 X94.658 Y91.363 E7.45149
G1 X94.166 Y90.415 E7.50505
G1 X93.87 Y89.541 E7.55137
G1 X93.658 Y88.051 E7.62689
G1 X93.693 Y77.47 E8.15792
G1 X93.965 Y76.1 E8.22801
G1 X94.541 Y74.782 E8.3002
G1 X94.718 Y74.536 E8.31541
G1 X94.998 Y74.738 F7800
G1 F1800
G1 X95.538 Y73.987 E8.36184
G1 X96.152 Y73.393 E8.40467
G1 X96.822 Y72.901 E8.44643
G1 X98.223 Y72.259 E8.52374
G1 X98.886 Y72.092 E8.55809
G1 X99.559 Y71.999 E8.59215
G1 X123.199 Y70.543 E9.78078
G1 X124.612 Y70.519 E9.85173
G1 X125.639 Y70.563 E9.90329
G1 X126.868 Y70.692 E9.96534
G1 X128.034 Y70.888 E10.02469
G1 X129.049 Y71.117 E10.07691
G1 X130.274 Y71.474 E10.1409
G1 X131.483 Y71.909 E10.20539
G1 X132.374 Y72.297 E10.25416
G1 X133.095 Y72.647 E10.29439
G1 X133.812 Y73.037 E10.33536
G1 X134.817 Y73.645 E10.39433
G1 X135.782 Y74.324 E10.45352
G1 X136.792 Y75.12 E10.51807
G1 X137.763 Y76.007 E10.58408
G1 X138.291 Y76.542 E10.62181
G1 X138.793 Y77.098 E10.65938
G1 X139.596 Y78.072 E10.72274
G1 X140.412 Y79.216 E10.79328
G1 X141.131 Y80.417 E10.8635
G1 X141.593 Y81.666 E10.93033
G1 X141.751 Y82.968 E10.99618
G1 X141.589 Y84.294 E11.06319
G1 X141.113 Y85.589 E11.13248
G1 X140.282 Y86.944 E11.21225
G1 X139.745 Y87.703 E11.25891
G1 X139.261 Y88.323 E11.29838
G1 X138.697 Y88.987 E11.34209
G1 X138.098 Y89.628 E11.38613
G1 X137.105 Y90.574 E11.45496
G1 X136.383 Y91.187 E11.50245
G1 X135.627 Y91.763 E11.55017
G1 X134.811 Y92.324 E11.59987
G1 X134.121 Y92.755 E11.64068
G1 X133.465 Y93.121 E11.67837
G1 X132.321 Y93.693 E11.74261
G1 X131.52 Y94.038 E11.78638
G1 X130.335 Y94.475 E11.84973
G1 X129.087 Y94.835 E11.91493
G1 X127.647 Y95.155 E11.98895
G1 X126.041 Y95.368 E12.07027
G1 X125.008 Y95.436 E12.1222
G1 X123.905 Y95.447 E12.17756
G1 X123.281 Y95.425 E12.20889
G1 X99.337 Y93.945 E13.41286
G1 X98.602 Y93.808 E13.45036
G1 X97.895 Y93.592 E13.48746
G1 X96.818 Y93.068 E13.5476
G1 X95.762 Y92.215 E13.61572
G1 X94.94 Y91.164 E13.6827
G1 X94.479 Y90.269 E13.73317
G1 X94.203 Y89.447 E13.77674
G1 X94.001 Y88.016 E13.84926
G1 X94.035 Y77.52 E14.37599
G1 X94.289 Y76.22 E14.44248
G1 X94.831 Y74.968 E14.51094
G1 X94.962 Y74.786 E14.52219
G1 X95.242 Y74.987 F7800
G1 F1800
G1 X95.79 Y74.223 E14.56934
G1 X96.365 Y73.664 E14.60961
G1 X97.012 Y73.19 E14.64988
G1 X98.322 Y72.59 E14.7222
G1 X98.943 Y72.432 E14.75435
G1 X99.587 Y72.343 E14.78693
G1 X123.216 Y70.888 E15.97504
G1 X124.603 Y70.864 E16.04465
G1 X125.608 Y70.906 E16.09514
G1 X126.827 Y71.034 E16.15665
G1 X127.972 Y71.227 E16.21495
G1 X128.958 Y71.45 E16.26566
G1 X130.162 Y71.8 E16.32859
G1 X131.35 Y72.227 E16.39196
G1 X132.226 Y72.609 E16.4399
G1 X132.933 Y72.952 E16.47936
G1 X133.637 Y73.334 E16.51953
G1 X134.634 Y73.937 E16.578
G1 X135.572 Y74.597 E16.63559
G1 X136.564 Y75.379 E16.69897
G1 X137.521 Y76.252 E16.76398
G1 X138.038 Y76.777 E16.80092
G1 X138.535 Y77.326 E16.83812
G1 X139.319 Y78.277 E16.89998
G1 X140.12 Y79.4 E16.96917
G1 X140.826 Y80.58 E17.03822
G1 X141.263 Y81.765 E17.1016
G1 X141.406 Y82.987 E17.16333
G1 X141.25 Y84.23 E17.22621
G1 X140.796 Y85.453 E17.29168
G1 X139.991 Y86.759 E17.36864
G1 X139.465 Y87.501 E17.41428
G1 X138.996 Y88.103 E17.4526
G1 X138.436 Y88.76 E17.49593
G1 X137.856 Y89.382 E17.53861
G1 X136.871 Y90.321 E17.60693
G1 X136.164 Y90.921 E17.65345
G1 X135.428 Y91.481 E17.69987
G1 X134.625 Y92.034 E17.74877
G1 X133.942 Y92.46 E17.78918
G1 X133.308 Y92.814 E17.82565
G1 X132.18 Y93.379 E17.88895
G1 X131.396 Y93.716 E17.93178
G1 X130.234 Y94.146 E17.99396
G1 X129.007 Y94.5 E18.05804
G1 X127.594 Y94.814 E18.13067
G1 X126.012 Y95.024 E18.21075
G1 X125 Y95.091 E18.26168
G1 X123.914 Y95.103 E18.31618
G1 X123.3 Y95.08 E18.34698
G1 X99.389 Y93.604 E19.54927
G1 X98.694 Y93.475 E19.58478
G1 X98.009 Y93.266 E19.62073
G1 X97.018 Y92.786 E19.67596
G1 X96.021 Y91.986 E19.74011
G1 X95.222 Y90.964 E19.80523
G1 X94.792 Y90.124 E19.85257
G1 X94.535 Y89.353 E19.8934
G1 X94.346 Y88.004 E19.96172
G1 X94.377 Y77.569 E20.48542
G1 X94.614 Y76.338 E20.54832
G1 X95.123 Y75.153 E20.61305
G1 X95.207 Y75.036 E20.62032
G1 X95.488 Y75.236 F7800
G1 F1800
G1 X96.042 Y74.459 E20.66821
G1 X96.579 Y73.935 E20.70588
G1 X97.202 Y73.478 E20.74464
G1 X98.422 Y72.92 E20.81198
G1 X99.019 Y72.769 E20.84286
G1 X99.614 Y72.687 E20.87303
G1 X123.233 Y71.232 E22.06062
G1 X124.594 Y71.209 E22.12889
G1 X125.577 Y71.25 E22.17831
G1 X126.785 Y71.377 E22.23927
G1 X127.91 Y71.566 E22.29653
G1 X128.867 Y71.782 E22.34573
G1 X130.051 Y72.127 E22.4076
G1 X131.218 Y72.546 E22.46985
G1 X132.079 Y72.92 E22.51697
G1 X132.772 Y73.257 E22.55566
G1 X133.462 Y73.632 E22.59503
G1 X134.44 Y74.223 E22.65241
G1 X135.363 Y74.871 E22.70899
G1 X136.336 Y75.638 E22.77119
G1 X137.279 Y76.498 E22.8352
G1 X137.789 Y77.016 E22.87173
G1 X138.276 Y77.555 E22.90817
G1 X139.042 Y78.483 E22.96853
G1 X139.827 Y79.583 E23.03638
G1 X140.522 Y80.743 E23.10425
G1 X140.932 Y81.864 E23.16414
G1 X141.061 Y83.005 E23.22175
G1 X140.91 Y84.165 E23.28049
G1 X140.479 Y85.316 E23.34215
G1 X139.701 Y86.572 E23.41632
G1 X139.186 Y87.298 E23.46096
G1 X138.731 Y87.882 E23.49814
G1 X138.176 Y88.534 E23.54109
G1 X137.614 Y89.136 E23.58241
G1 X136.636 Y90.068 E23.65023
G1 X135.951 Y90.649 E23.69531
G1 X135.228 Y91.199 E23.7409
G1 X134.439 Y91.743 E23.789
G1 X133.763 Y92.166 E23.82899
G1 X133.15 Y92.508 E23.86425
G1 X132.038 Y93.064 E23.92662
G1 X131.272 Y93.394 E23.96852
G1 X130.132 Y93.816 E24.02952
G1 X128.927 Y94.164 E24.09248
G1 X127.541 Y94.473 E24.16371
G1 X125.984 Y94.68 E24.24256
G1 X124.991 Y94.746 E24.29248
G1 X123.922 Y94.758 E24.34613
G1 X123.32 Y94.736 E24.3764
G1 X99.442 Y93.263 E25.577
G1 X98.766 Y93.138 E25.61148
G1 X98.122 Y92.94 E25.6453
G1 X97.218 Y92.505 E25.69563
G1 X96.253 Y91.73 E25.75776
G1 X95.504 Y90.766 E25.81901
G1 X95.106 Y89.98 E25.86323
G1 X94.867 Y89.259 E25.90135
G1 X94.691 Y87.993 E25.9655
G1 X94.719 Y77.617 E26.48622
G1 X94.939 Y76.456 E26.54555
G1 X95.415 Y75.338 E26.60652
G1 X95.453 Y75.285 E26.60981
G1 X95.734 Y75.484 F7800
G1 F1800
G1 X96.294 Y74.695 E26.65839
G1 X96.811 Y74.191 E26.69464
G1 X97.391 Y73.767 E26.73069
G1 X98.522 Y73.25 E26.7931
G1 X99.076 Y73.109 E26.82177
G1 X99.642 Y73.031 E26.85045
G1 X123.251 Y71.577 E28.03752
G1 X124.584 Y71.553 E28.10446
G1 X125.547 Y71.593 E28.15279
G1 X126.744 Y71.719 E28.21321
G1 X127.848 Y71.906 E28.26942
G1 X128.776 Y72.115 E28.31713
G1 X129.939 Y72.453 E28.37793
G1 X131.086 Y72.864 E28.43906
G1 X131.931 Y73.232 E28.48535
G1 X132.611 Y73.562 E28.52327
G1 X133.287 Y73.929 E28.56185
G1 X134.247 Y74.509 E28.61814
G1 X135.153 Y75.145 E28.67371
G1 X136.108 Y75.897 E28.73474
G1 X137.036 Y76.743 E28.79774
G1 X137.536 Y77.25 E28.83348
G1 X138.018 Y77.783 E28.86953
G1 X138.765 Y78.688 E28.92841
G1 X139.543 Y79.777 E28.99559
G1 X140.217 Y80.906 E29.06157
G1 X140.6 Y81.962 E29.11794
G1 X140.716 Y83.021 E29.17143
G1 X140.58 Y84.064 E29.22419
G1 X140.176 Y85.149 E29.2823
G1 X139.41 Y86.386 E29.35533
G1 X138.912 Y87.089 E29.39857
G1 X138.466 Y87.661 E29.43501
G1 X137.916 Y88.307 E29.47757
G1 X137.366 Y88.897 E29.51803
G1 X136.402 Y89.815 E29.58484
G1 X135.732 Y90.383 E29.62894
G1 X135.029 Y90.918 E29.67324
G1 X134.247 Y91.457 E29.72094
G1 X133.584 Y91.871 E29.76012
G1 X132.985 Y92.204 E29.79454
G1 X131.897 Y92.749 E29.85561
G1 X131.148 Y93.073 E29.89657
G1 X130.018 Y93.491 E29.95702
G1 X128.836 Y93.832 E30.01876
G1 X127.488 Y94.132 E30.08807
G1 X125.944 Y94.338 E30.16626
G1 X124.983 Y94.402 E30.2146
G1 X123.931 Y94.413 E30.2674
G1 X123.339 Y94.391 E30.29714
G1 X99.494 Y92.922 E31.49608
G1 X98.858 Y92.805 E31.52853
G1 X98.236 Y92.614 E31.56116
G1 X97.387 Y92.203 E31.60851
G1 X96.486 Y91.475 E31.66665
G1 X95.788 Y90.569 E31.72404
G1 X95.42 Y89.837 E31.76515
G1 X95.2 Y89.167 E31.80058
G1 X95.036 Y87.982 E31.8606
G1 X95.061 Y77.665 E32.37838
G1 X95.264 Y76.572 E32.43414
G1 X95.702 Y75.535 E32.49067
G1 X96 Y75.705 F7800
G1 F1800
G1 X96.547 Y74.93 E32.53828
G1 X97.025 Y74.462 E32.57187
G1 X97.58 Y74.056 E32.60639
G1 X98.623 Y73.581 E32.66389
G1 X99.134 Y73.45 E32.69035
G1 X99.67 Y73.374 E32.71753
G1 X123.268 Y71.921 E33.90407
G1 X124.575 Y71.898 E33.96968
G1 X125.516 Y71.937 E34.01693
G1 X126.702 Y72.062 E34.0768
G1 X127.786 Y72.245 E34.13196
G1 X128.685 Y72.448 E34.17818
G1 X129.828 Y72.779 E34.23792
G1 X130.953 Y73.183 E34.29792
G1 X131.784 Y73.544 E34.34339
G1 X132.45 Y73.867 E34.38055
G1 X133.112 Y74.226 E34.41833
G1 X134.054 Y74.794 E34.47352
G1 X134.944 Y75.419 E34.52809
G1 X135.881 Y76.156 E34.58794
G1 X136.794 Y76.989 E34.64994
G1 X137.288 Y77.49 E34.68525
G1 X137.76 Y78.011 E34.72055
G1 X138.488 Y78.893 E34.77794
G1 X139.25 Y79.96 E34.84377
G1 X139.913 Y81.068 E34.90854
G1 X140.269 Y82.059 E34.96137
G1 X140.372 Y82.998 E35.00881
G1 X140.25 Y83.963 E35.05761
G1 X139.874 Y84.982 E35.11212
G1 X139.12 Y86.2 E35.18399
G1 X138.638 Y86.88 E35.22584
G1 X138.201 Y87.441 E35.26152
G1 X137.656 Y88.081 E35.30369
G1 X137.117 Y88.658 E35.3433
G1 X136.168 Y89.562 E35.40909
G1 X135.512 Y90.117 E35.45221
G1 X134.83 Y90.636 E35.49523
G1 X134.054 Y91.171 E35.54253
G1 X133.406 Y91.576 E35.5809
G1 X132.821 Y91.901 E35.61448
G1 X131.756 Y92.434 E35.67425
G1 X131.024 Y92.751 E35.71428
G1 X129.904 Y93.165 E35.77418
G1 X128.746 Y93.499 E35.83469
G1 X127.435 Y93.791 E35.90208
G1 X125.904 Y93.995 E35.9796
G1 X124.974 Y94.057 E36.02637
G1 X123.939 Y94.068 E36.07832
G1 X123.358 Y94.047 E36.10752
G1 X99.546 Y92.581 E37.3048
G1 X98.93 Y92.468 E37.33621
G1 X98.351 Y92.289 E37.36664
G1 X97.556 Y91.902 E37.411
G1 X96.72 Y91.221 E37.46512
G1 X96.072 Y90.374 E37.51865
G1 X95.735 Y89.696 E37.55667
G1 X95.532 Y89.075 E37.58943
G1 X95.381 Y87.971 E37.64534
G1 X95.403 Y77.711 E38.16024
G1 X95.589 Y76.688 E38.21246
G1 X95.977 Y75.76 E38.26289
G1 X96.292 Y75.891 F7800
G1 F1800
G1 X96.8 Y75.165 E38.30734
G1 X97.257 Y74.717 E38.33947
G1 X97.769 Y74.345 E38.37121
G1 X98.723 Y73.911 E38.42384
G1 X99.21 Y73.786 E38.44905
G1 X99.698 Y73.718 E38.47377
G1 X123.286 Y72.266 E39.65979
G1 X124.566 Y72.243 E39.72408
G1 X125.486 Y72.28 E39.77025
G1 X126.661 Y72.404 E39.82956
G1 X127.724 Y72.584 E39.88366
G1 X128.594 Y72.78 E39.92841
G1 X129.717 Y73.106 E39.98709
G1 X130.821 Y73.501 E40.04596
G1 X131.637 Y73.856 E40.09061
G1 X132.289 Y74.172 E40.12699
G1 X132.937 Y74.524 E40.16399
G1 X133.861 Y75.08 E40.21808
G1 X134.734 Y75.693 E40.27164
G1 X135.653 Y76.416 E40.33031
G1 X136.552 Y77.234 E40.39131
G1 X137.035 Y77.724 E40.42583
G1 X137.501 Y78.24 E40.46074
G1 X138.211 Y79.099 E40.51666
G1 X138.958 Y80.144 E40.58111
G1 X139.608 Y81.23 E40.64466
G1 X139.937 Y82.155 E40.69389
G1 X140.027 Y83.014 E40.73727
G1 X139.919 Y83.863 E40.78023
G1 X139.571 Y84.816 E40.83112
G1 X138.83 Y86.014 E40.90182
G1 X138.363 Y86.671 E40.94227
G1 X137.935 Y87.22 E40.97721
G1 X137.396 Y87.854 E41.01899
G1 X136.869 Y88.418 E41.05773
G1 X135.934 Y89.308 E41.12252
G1 X135.293 Y89.851 E41.16465
G1 X134.631 Y90.354 E41.2064
G1 X133.868 Y90.881 E41.2529
G1 X133.227 Y91.281 E41.29084
G1 X132.657 Y91.598 E41.32359
G1 X131.615 Y92.12 E41.38207
G1 X130.9 Y92.429 E41.42116
G1 X129.791 Y92.839 E41.4805
G1 X128.655 Y93.166 E41.53979
G1 X127.382 Y93.45 E41.60526
G1 X125.864 Y93.652 E41.68212
G1 X124.966 Y93.712 E41.72731
G1 X123.948 Y93.723 E41.77841
G1 X123.377 Y93.703 E41.80708
G1 X99.598 Y92.24 E43.00269
G1 X99.003 Y92.13 E43.03305
G1 X98.465 Y91.963 E43.0613
G1 X97.757 Y91.621 E43.10079
G1 X96.981 Y90.995 E43.15081
G1 X96.357 Y90.178 E43.20243
G1 X96.05 Y89.555 E43.23728
G1 X95.865 Y88.984 E43.26741
G1 X95.726 Y87.96 E43.31926
G1 X95.745 Y77.757 E43.83132
G1 X95.915 Y76.802 E43.88001
G1 X96.269 Y75.946 E43.92646
G1 X96.585 Y76.075 F7800
G1 F1800
G1 X97.054 Y75.399 E43.96776
G1 X97.471 Y74.988 E43.99713
G1 X97.957 Y74.635 E44.02733
G1 X98.824 Y74.241 E44.07511
G1 X99.268 Y74.126 E44.09809
G1 X99.726 Y74.062 E44.1213
G1 X123.303 Y72.61 E45.3068
G1 X124.558 Y72.588 E45.36976
G1 X125.455 Y72.624 E45.41485
G1 X126.619 Y72.746 E45.4736
G1 X127.661 Y72.923 E45.52664
G1 X128.503 Y73.113 E45.56992
